icons/ChartBarHorizontal.svg

<svg width="24" height="24" viewBox="0 0 24 24" fill="none" xmlns="http://www.w3.org/2000/svg">
<path fill-rule="evenodd" clip-rule="evenodd" d="M21.25,14.75c0,0.4142 -0.3358,0.75 -0.75,0.75h-7.75v4.75c0,0.4142 -0.3358,0.75 -0.75,0.75h-7.75v1c0,0.4142 -0.33579,0.75 -0.75,0.75c-0.41421,0 -0.75,-0.3358 -0.75,-0.75v-1.75v-5.5v-5.5v-5.5v-1.75c0,-0.41421 0.33579,-0.75 0.75,-0.75c0.41421,0 0.75,0.33579 0.75,0.75v1h12c0.4142,0 0.75,0.33579 0.75,0.75v4.75h3.5c0.4142,0 0.75,0.33579 0.75,0.75zM4.25,8.5h11.25v-4h-11.25zM4.25,14h7.75h7.75v-4h-3.5h-12zM4.25,19.5h7v-4h-7z" fill="#002B51"/>
</svg>

<svg width="24" height="24" viewBox="0 0 24 24" fill="none" xmlns="http://www.w3.org/2000/svg">
<path fill-rule="evenodd" clip-rule="evenodd" d="M21.25 14.75C21.25 15.1642 20.9142 15.5 20.5 15.5H12.75V20.25C12.75 20.6642 12.4142 21 12 21H4.25V22C4.25 22.4142 3.91421 22.75 3.5 22.75C3.08579 22.75 2.75 22.4142 2.75 22V20.25V14.75V9.25V3.75V2C2.75 1.58579 3.08579 1.25 3.5 1.25C3.91421 1.25 4.25 1.58579 4.25 2V3H16.25C16.6642 3 17 3.33579 17 3.75V8.5H20.5C20.9142 8.5 21.25 8.83579 21.25 9.25V14.75ZM4.25 4.5H15.5V8.5H4.25V4.5ZM4.25 10H16.25H19.75V14H12H4.25V10ZM4.25 15.5H11.25V19.5H4.25V15.5Z" fill="#002B51"/>
</svg>
